X:1
T:Sorrowful Shilling, The
M:6/8
L:1/8
C:Sean O'Driscoll
S:L.Nugent #1 Trk 2
R:double jig
D:Laurence Nugent
D:Gan Ainm
Z:Ed Wosika
K:Ador
G |:EAA AGA| cde ~g3|age dBG| A~B2 GED|
EAA AGA| cde ~g3|age dBG|1 BAA A2G:|2 BAA A2B||:
cBc ece| gec ecA| ~G3 BGB| eBe dBG|
~c3 ece| gcg edc| d/4~e3 ede|1 cAA A2B:|2 cAA Ace||:
~a2a aba| gee e2d| e^fg edc|~B3 GAB|
cBc dcd| ede g2b| age dBG|1 BAA Ace:|2 BAA A2G||
